_src/design/images/icon/pdf.svg

<svg width="32" height="32" viewBox="0 0 32 32" fill="none" xmlns="http://www.w3.org/2000/svg">
<path d="M8.18656 28.1133C7.09216 28.1133 6.23242 27.2536 6.23242 26.1592V5.84134C6.23242 4.74694 7.09216 3.88721 8.18656 3.88721H20.2207C20.6506 3.88721 21.041 4.04401 21.3151 4.35654L25.3002 8.34161C25.6127 8.65414 25.7695 9.04454 25.7695 9.43601V26.1592C25.7695 27.2536 24.9098 28.1133 23.8154 28.1133H8.18656Z" fill="white"/>
<path d="M20.2205 4.27845C20.533 4.27845 20.8455 4.39578 21.0407 4.63045L25.0258 8.61551C25.2605 8.85018 25.3778 9.12325 25.3778 9.43578V26.159C25.3778 27.0187 24.6749 27.7216 23.8151 27.7216H8.18633C7.3266 27.7216 6.62366 27.0187 6.62366 26.159V5.84112C6.62366 4.98138 7.3266 4.27845 8.18633 4.27845H20.2205ZM20.2205 3.49658H8.18633C6.89673 3.49658 5.8418 4.55152 5.8418 5.84112V26.159C5.8418 27.4486 6.89673 28.5035 8.18633 28.5035H23.8151C25.1047 28.5035 26.1597 27.4486 26.1597 26.159V9.43578C26.1597 8.92805 25.9645 8.42032 25.5741 8.06832L21.589 4.08325C21.1975 3.69178 20.7282 3.49658 20.2205 3.49658Z" fill="#FF2116"/>
<path d="M20.7963 14.7692C20.6598 14.623 20.4347 14.5057 20.1414 14.4246C19.848 14.3446 19.4864 14.2998 19.0768 14.2998C18.8422 14.2998 18.5936 14.3148 18.3323 14.3414C18.071 14.3681 17.7979 14.4076 17.5142 14.4566C17.3478 14.2998 17.1824 14.1292 17.0182 13.9436C16.855 13.758 16.6939 13.5574 16.5371 13.343C16.4294 13.1862 16.3227 13.0305 16.2203 12.8737C16.1179 12.7169 16.0198 12.5612 15.9323 12.4044C16.0784 11.9457 16.2054 11.4956 16.296 11.0785C16.3867 10.6604 16.44 10.2753 16.44 9.94357C16.44 9.6993 16.4006 9.37183 16.2694 9.10623C16.1371 8.83957 15.9131 8.63477 15.5419 8.63477C15.4438 8.63477 15.3414 8.66357 15.2507 8.71477C15.16 8.76597 15.0822 8.83957 15.0331 8.92703C14.887 9.1905 14.8432 9.62997 14.9062 10.158C14.9702 10.686 15.1408 11.3004 15.4235 11.9158C15.3254 12.2092 15.2176 12.5068 15.1003 12.8172C14.983 13.1276 14.856 13.4497 14.7195 13.7921C14.6022 14.0758 14.4752 14.3585 14.3408 14.6369C14.2064 14.9153 14.0646 15.1894 13.9184 15.4518C13.1174 15.774 12.4582 16.111 11.9867 16.4406C11.5152 16.7702 11.2326 17.0924 11.1835 17.3857C11.1643 17.4838 11.1686 17.5756 11.1984 17.6641C11.2272 17.7516 11.2816 17.8348 11.3595 17.9126C11.4086 17.9521 11.4811 18.0054 11.5792 18.0492C11.6774 18.0929 11.799 18.127 11.9462 18.127C12.4048 18.127 12.8934 17.79 13.3627 17.279C13.832 16.7692 14.2811 16.0854 14.6619 15.391C14.8763 15.3132 15.096 15.2396 15.3211 15.1713C15.5462 15.103 15.7755 15.0401 16.0102 14.9814C16.264 14.9132 16.5083 14.8545 16.7483 14.8033C16.9872 14.7521 17.2219 14.7084 17.4566 14.6689C18.0134 15.1766 18.536 15.455 18.983 15.6065C19.4299 15.758 19.8011 15.7825 20.055 15.7825C20.3579 15.7825 20.5499 15.7356 20.6779 15.6609C20.8059 15.5862 20.8688 15.4838 20.9147 15.3729C20.9552 15.2396 20.9552 15.118 20.9307 15.0145C20.9051 14.9132 20.855 14.8278 20.7963 14.7692ZM15.1899 9.02517C15.2294 8.9569 15.2774 8.90357 15.3339 8.86623C15.3904 8.82997 15.4534 8.8097 15.5216 8.8097C15.6582 8.8097 15.7659 8.86837 15.8384 8.98357C15.912 9.09877 15.9504 9.26943 15.9504 9.49343C15.9504 9.7281 15.911 10.0406 15.8384 10.4065C15.7648 10.7734 15.6582 11.1926 15.5216 11.6417C15.2486 11.0166 15.111 10.4556 15.0704 10.0033C15.0288 9.55317 15.0822 9.21077 15.1899 9.02517ZM11.3606 17.407C11.4096 17.1628 11.6635 16.8844 12.0784 16.5942C12.4934 16.303 13.0704 16.0012 13.7638 15.7078C13.3734 16.3724 12.9819 16.9089 12.631 17.2801C12.279 17.6513 11.9664 17.8561 11.7318 17.8561C11.6827 17.8561 11.639 17.8465 11.5974 17.8294C11.5558 17.8124 11.5174 17.7878 11.4779 17.759C11.4288 17.71 11.3947 17.6513 11.3755 17.5905C11.3552 17.5286 11.351 17.4657 11.3606 17.407ZM17.2806 14.4961C17.0758 14.5356 16.8603 14.5793 16.6406 14.6273C16.4208 14.6764 16.1968 14.7297 15.9718 14.7884C15.7766 14.8374 15.5814 14.8908 15.3883 14.9494C15.1952 15.0081 15.0054 15.071 14.8198 15.1393C14.9275 14.9345 15.0299 14.734 15.1227 14.5388C15.2155 14.3436 15.2987 14.1526 15.367 13.967C15.4544 13.7526 15.543 13.5329 15.6283 13.31C15.7136 13.0881 15.7968 12.863 15.8747 12.638C15.9526 12.7745 16.0358 12.911 16.1243 13.0486C16.2118 13.1852 16.3046 13.3217 16.4027 13.4593C16.5392 13.6449 16.6811 13.8262 16.8283 13.999C16.9723 14.1729 17.1238 14.3393 17.2806 14.4961ZM17.671 14.6134C18.1403 14.526 18.5798 14.4865 18.9478 14.479C19.3168 14.4716 19.6144 14.4961 19.8 14.5356C19.976 14.575 20.1126 14.6529 20.1979 14.7606C20.2832 14.8684 20.3174 15.0049 20.2886 15.1606C20.2598 15.327 20.1467 15.4486 19.9878 15.5169C19.8288 15.5852 19.624 15.6001 19.4086 15.551C19.0566 15.4636 18.7398 15.326 18.4518 15.1628C18.1638 14.9996 17.9056 14.8086 17.671 14.6134Z" fill="#FF2116"/>
<path d="M12.0186 21.4372C12.0186 21.4319 12.0186 21.4265 12.0197 21.4223C12.0208 21.418 12.0218 21.4137 12.024 21.4105C12.0261 21.4073 12.0293 21.4041 12.0346 21.4031C12.0389 21.4009 12.0442 21.3999 12.0517 21.3999C12.105 21.3967 12.1637 21.3945 12.2288 21.3924C12.2928 21.3903 12.3621 21.3881 12.4346 21.3871C12.5072 21.386 12.584 21.3849 12.6629 21.3839C12.7418 21.3828 12.8218 21.3828 12.904 21.3828C13.1333 21.3828 13.3306 21.4137 13.497 21.4713C13.6634 21.5289 13.8 21.6121 13.9066 21.7145C14.0144 21.818 14.0922 21.9407 14.1445 22.0783C14.1957 22.2159 14.2213 22.3684 14.2213 22.5295C14.2213 22.7396 14.1829 22.9199 14.1146 23.0724C14.0464 23.2239 13.9472 23.3487 13.8245 23.4468C13.7018 23.5449 13.5557 23.6164 13.3936 23.6633C13.2314 23.7103 13.0533 23.7327 12.8656 23.7327C12.8336 23.7327 12.808 23.7327 12.7845 23.7316C12.761 23.7316 12.7418 23.7306 12.7226 23.7295C12.7034 23.7284 12.6864 23.7284 12.6682 23.7273C12.6501 23.7263 12.6309 23.7263 12.6085 23.7263V24.0452V24.3642V24.6831V25.002C12.6085 25.0095 12.6074 25.0148 12.6064 25.0191C12.6053 25.0234 12.6032 25.0276 12.6 25.0308C12.5968 25.034 12.5925 25.0362 12.5882 25.0372C12.584 25.0383 12.5776 25.0394 12.5712 25.0394H12.4421H12.313H12.184H12.0549C12.0485 25.0394 12.0421 25.0383 12.0378 25.0372C12.0336 25.0362 12.0293 25.034 12.0261 25.0308C12.0229 25.0276 12.0208 25.0234 12.0197 25.0191C12.0186 25.0138 12.0176 25.0084 12.0176 25.002V24.1113V23.2207V22.33C12.0186 22.3279 12.0186 21.4372 12.0186 21.4372ZM12.6085 23.1961C12.6277 23.1972 12.6458 23.1983 12.664 23.1993C12.6821 23.2004 12.7013 23.2004 12.7216 23.2004C12.7418 23.2004 12.7642 23.2004 12.7898 23.2015C12.8154 23.2015 12.8432 23.2015 12.8762 23.2015C12.9733 23.2015 13.0682 23.1929 13.1568 23.1716C13.2453 23.1503 13.3264 23.1172 13.3957 23.0671C13.465 23.0169 13.5226 22.9508 13.5621 22.8644C13.6016 22.778 13.625 22.6713 13.625 22.5401C13.625 22.4345 13.609 22.3428 13.5781 22.2639C13.5472 22.1849 13.5013 22.1188 13.4416 22.0655C13.3818 22.0132 13.3082 21.9727 13.2218 21.946C13.1354 21.9193 13.0362 21.9065 12.9253 21.9065C12.8922 21.9065 12.8602 21.9065 12.8293 21.9076C12.7984 21.9087 12.7685 21.9087 12.7408 21.9097C12.713 21.9108 12.6874 21.9119 12.665 21.9129C12.6426 21.914 12.6234 21.9161 12.6085 21.9172V22.2372V22.5572V22.8772V23.1961Z" fill="#2C2C2C"/>
<path d="M14.8107 21.4421C14.8107 21.4347 14.8107 21.4293 14.8118 21.4251C14.8129 21.4197 14.815 21.4165 14.8171 21.4123C14.8203 21.4091 14.8235 21.4059 14.8289 21.4037C14.8342 21.4016 14.8406 21.3995 14.8491 21.3984C14.8811 21.3973 14.927 21.3952 14.9835 21.3931C15.0411 21.3909 15.1094 21.3899 15.1851 21.3877C15.2609 21.3856 15.3451 21.3845 15.4337 21.3835C15.5211 21.3824 15.6139 21.3813 15.7067 21.3813C15.9841 21.3813 16.2262 21.4261 16.4342 21.5093C16.6422 21.5925 16.815 21.7152 16.9526 21.8699C17.0913 22.0245 17.1947 22.2133 17.2641 22.4277C17.3334 22.6421 17.3675 22.8832 17.3675 23.1467C17.3675 23.5115 17.3078 23.8133 17.2065 24.0597C17.1051 24.3061 16.9622 24.4981 16.7969 24.6453C16.6315 24.7925 16.4427 24.8928 16.2486 24.9568C16.0555 25.0208 15.8571 25.0485 15.6726 25.0485C15.6033 25.0485 15.5254 25.0486 15.4465 25.0475C15.3675 25.0475 15.2854 25.0464 15.2086 25.0453C15.1307 25.0443 15.0582 25.0432 14.9953 25.0421C14.9323 25.0411 14.879 25.0389 14.8427 25.0379C14.8374 25.0379 14.8321 25.0368 14.8278 25.0347C14.8235 25.0325 14.8203 25.0304 14.8171 25.0261C14.8139 25.0219 14.8129 25.0176 14.8107 25.0123C14.8097 25.0069 14.8086 25.0006 14.8086 24.9942V24.1056V23.2171V22.3285L14.8107 21.4421ZM15.407 24.5131C15.4305 24.5141 15.4529 24.5163 15.4753 24.5173C15.4977 24.5184 15.5201 24.5195 15.5425 24.5205C15.5649 24.5216 15.5873 24.5227 15.6118 24.5227C15.6353 24.5227 15.6598 24.5237 15.6865 24.5237C15.8401 24.5237 15.983 24.4971 16.111 24.4416C16.2401 24.3861 16.3542 24.304 16.4491 24.192C16.5441 24.08 16.6209 23.9392 16.6731 23.7675C16.7254 23.5968 16.7553 23.3952 16.7563 23.1627C16.7574 22.9365 16.7297 22.7435 16.6774 22.5835C16.6251 22.4235 16.5483 22.2944 16.4534 22.1941C16.3585 22.0939 16.2454 22.0213 16.1185 21.9744C15.9926 21.9275 15.8529 21.9061 15.7067 21.9061C15.6779 21.9061 15.6513 21.9061 15.6246 21.9072C15.5979 21.9083 15.5734 21.9083 15.5489 21.9093C15.5243 21.9104 15.5009 21.9115 15.4774 21.9125C15.4539 21.9136 15.4305 21.9157 15.407 21.9168V22.5653V23.2139V23.8624C15.407 23.8635 15.407 24.5131 15.407 24.5131Z" fill="#2C2C2C"/>
<path d="M18.6206 24.994C18.6206 25.0026 18.6195 25.009 18.6185 25.0143C18.6174 25.0196 18.6153 25.025 18.6121 25.0282C18.6089 25.0314 18.6046 25.0335 18.6003 25.0356C18.5961 25.0367 18.5897 25.0378 18.5833 25.0378H18.4531H18.323H18.1929H18.0627C18.0563 25.0378 18.0499 25.0367 18.0457 25.0356C18.0414 25.0346 18.0371 25.0314 18.0339 25.0282C18.0307 25.025 18.0286 25.0207 18.0275 25.0143C18.0265 25.009 18.0254 25.0015 18.0254 24.994V24.1034V23.2127V22.322V21.4314C18.0254 21.425 18.0265 21.4186 18.0275 21.4143C18.0286 21.41 18.0307 21.4058 18.0339 21.4026C18.0371 21.3994 18.0414 21.3972 18.0457 21.3962C18.0499 21.3951 18.0563 21.394 18.0627 21.394H18.5171H18.9715H19.4259H19.8803C19.8889 21.394 19.8953 21.3951 19.9006 21.3962C19.9059 21.3972 19.9091 21.3994 19.9123 21.4026C19.9155 21.4058 19.9177 21.41 19.9198 21.4143C19.9219 21.4186 19.923 21.425 19.9241 21.4314L19.9379 21.5466L19.9518 21.6618L19.9657 21.777L19.9795 21.8922C19.9806 21.9007 19.9806 21.9071 19.9795 21.9124C19.9785 21.9178 19.9753 21.9231 19.9721 21.9263C19.9689 21.9295 19.9635 21.9316 19.9571 21.9338C19.9507 21.9348 19.9443 21.9359 19.9358 21.9359H19.6062H19.2777H18.9481H18.6185V22.1951V22.4543V22.7135V22.9727H18.9139H19.2094H19.5049H19.8003C19.8078 22.9727 19.8131 22.9727 19.8174 22.9738C19.8227 22.9748 19.8259 22.977 19.8291 22.9791C19.8323 22.9823 19.8345 22.9855 19.8355 22.9908C19.8366 22.9962 19.8377 23.0026 19.8377 23.0111V23.1263V23.2415V23.3567V23.4719C19.8377 23.4804 19.8366 23.4868 19.8355 23.4922C19.8345 23.4975 19.8323 23.5007 19.8291 23.5039C19.8259 23.5071 19.8217 23.5082 19.8174 23.5092C19.8121 23.5103 19.8067 23.5103 19.8003 23.5103H19.5059H19.2105H18.915H18.6195V23.8815V24.2527V24.6239L18.6206 24.994Z" fill="#2C2C2C"/>
</svg>

<svg width="32" height="32" fill="none" xmlns="http://www.w3.org/2000/svg"><path d="M8.187 28.113a1.935 1.935 0 01-1.955-1.954V5.841c0-1.094.86-1.954 1.955-1.954H20.22c.43 0 .82.157 1.094.47L25.3 8.342c.313.312.47.703.47 1.094v16.723c0 1.095-.86 1.954-1.955 1.954H8.187z" fill="#fff"/><path d="M20.22 4.278c.313 0 .626.118.82.352l3.986 3.986c.235.234.352.507.352.82v16.723c0 .86-.703 1.563-1.563 1.563H8.186c-.86 0-1.562-.703-1.562-1.563V5.841c0-.86.703-1.563 1.562-1.563h12.035zm0-.781H8.187A2.351 2.351 0 005.842 5.84v20.32a2.351 2.351 0 002.344 2.345h15.63a2.351 2.351 0 002.344-2.345V9.436c0-.508-.195-1.016-.586-1.368L21.59 4.083c-.391-.391-.86-.586-1.368-.586z" fill="#FF2116"/><path d="M20.796 14.77c-.136-.147-.361-.264-.655-.345a4.114 4.114 0 00-1.064-.125 7.58 7.58 0 00-.745.041 12.26 12.26 0 00-.818.116 7.859 7.859 0 01-.977-1.114 24.328 24.328 0 01-.317-.47 7.96 7.96 0 01-.288-.469c.146-.458.273-.908.364-1.325a5.57 5.57 0 00.144-1.135c0-.245-.04-.572-.17-.838-.133-.266-.357-.471-.728-.471a.602.602 0 00-.509.292c-.146.264-.19.703-.127 1.231.064.528.235 1.142.518 1.758-.099.293-.206.59-.324.901-.117.31-.244.633-.38.975a16.08 16.08 0 01-.802 1.66c-.8.322-1.46.659-1.931.989-.472.33-.754.651-.803.945a.533.533 0 00.014.278c.03.088.084.17.162.249.049.04.121.092.22.136a.878.878 0 00.366.078c.459 0 .947-.337 1.417-.848.469-.51.918-1.194 1.299-1.888a12.985 12.985 0 011.348-.41 14.46 14.46 0 011.447-.312c.556.508 1.079.786 1.526.938a3.29 3.29 0 001.072.176c.303 0 .495-.047.623-.122a.551.551 0 00.237-.288.683.683 0 00.016-.358.534.534 0 00-.135-.246zM15.19 9.024a.465.465 0 01.144-.159.343.343 0 01.188-.056c.136 0 .244.058.316.174.074.115.112.285.112.51 0 .234-.039.547-.112.912-.073.367-.18.787-.316 1.236-.273-.625-.411-1.186-.452-1.639-.041-.45.012-.792.12-.978zm-3.83 8.382c.05-.244.304-.523.718-.813.415-.291.992-.593 1.686-.886-.39.664-.782 1.2-1.133 1.572-.352.371-.665.576-.9.576a.347.347 0 01-.134-.027.573.573 0 01-.12-.07.415.415 0 01-.116-.352zm5.92-2.91a19.439 19.439 0 00-1.892.453 9.222 9.222 0 00-.568.19c.107-.206.21-.406.303-.601a6.87 6.87 0 00.244-.572c.087-.214.176-.434.261-.657a20 20 0 00.247-.672 9.07 9.07 0 00.953 1.361c.144.174.296.34.453.497zm.391.116a7.96 7.96 0 011.277-.134c.369-.007.666.017.852.057a.68.68 0 01.398.225c.085.107.12.244.09.4a.476.476 0 01-.3.356.95.95 0 01-.58.034 3.784 3.784 0 01-.956-.388 5.348 5.348 0 01-.781-.55z" fill="#FF2116"/><path d="M12.019 21.437v-.015l.005-.012a.016.016 0 01.01-.007 6.537 6.537 0 01.194-.01 10.705 10.705 0 01.435-.01h.241c.23 0 .427.03.593.088.166.058.303.141.41.244a.98.98 0 01.238.363c.05.138.076.29.076.451 0 .21-.038.39-.106.543a1 1 0 01-.29.375c-.123.098-.27.17-.431.216-.163.047-.34.07-.528.07l-.082-.001-.061-.002-.055-.003h-.06v1.275a.07.07 0 01-.002.017.025.025 0 01-.006.012.025.025 0 01-.012.006.071.071 0 01-.017.002h-.517a.073.073 0 01-.016-.002.025.025 0 01-.012-.006.025.025 0 01-.006-.012.08.08 0 01-.002-.017v-3.565zm.59 1.76l.055.002.058.001c.02 0 .042 0 .068.002h.086c.097 0 .192-.01.28-.03a.671.671 0 00.24-.105.507.507 0 00.166-.203.773.773 0 00.063-.324.753.753 0 00-.047-.276.512.512 0 00-.136-.198.599.599 0 00-.22-.12 1.007 1.007 0 00-.297-.04c-.033 0-.065 0-.096.002-.03 0-.06 0-.088.002-.028 0-.054.002-.076.003l-.056.004v1.28zm2.201-1.755c0-.007 0-.013.002-.017 0-.005.003-.009.005-.013a.034.034 0 01.012-.008.081.081 0 01.02-.006c.032 0 .078-.003.134-.005l.202-.005a15.635 15.635 0 01.522-.007c.277 0 .52.045.727.128.208.084.381.206.519.36.138.155.242.344.311.559.07.214.104.455.104.719 0 .365-.06.666-.162.913a1.576 1.576 0 01-.41.585 1.548 1.548 0 01-.547.312 1.844 1.844 0 01-.576.091h-.226a16.84 16.84 0 01-.452-.006c-.063 0-.116-.003-.152-.004a.035.035 0 01-.015-.003.027.027 0 01-.01-.009c-.004-.004-.005-.008-.007-.014a.1.1 0 01-.002-.018v-2.666l.002-.886zm.597 3.071l.068.004a15.104 15.104 0 00.137.006h.075c.153 0 .296-.026.424-.081a.907.907 0 00.338-.25c.095-.112.172-.253.224-.425.052-.17.082-.372.083-.604a1.843 1.843 0 00-.079-.58 1.01 1.01 0 00-.224-.389.872.872 0 00-.334-.22 1.18 1.18 0 00-.412-.068l-.082.001-.076.002-.072.004c-.023 0-.046.003-.07.004v2.596zm3.213.481a.103.103 0 01-.002.02.028.028 0 01-.006.014.043.043 0 01-.012.008.071.071 0 01-.017.002h-.52a.071.071 0 01-.017-.002.027.027 0 01-.012-.008.024.024 0 01-.006-.014.113.113 0 01-.003-.02v-3.562c0-.007.002-.013.003-.018a.025.025 0 01.006-.011.025.025 0 01.012-.007.071.071 0 01.017-.002h1.817l.02.002a.02.02 0 01.012.007.043.043 0 01.008.011l.004.017.014.116.014.115.014.115.014.115a.061.061 0 010 .02.028.028 0 01-.008.014.04.04 0 01-.015.008l-.021.002h-1.318v1.037h1.2l.012.006a.02.02 0 01.006.012.096.096 0 01.003.02v.461a.096.096 0 01-.003.02.02.02 0 01-.006.012.023.023 0 01-.012.005l-.017.001H18.62v1.113l.002.371z" fill="#2C2C2C"/></svg>
